packages/foundations/assets/icons/functional/images/transportation/pedestrian_14.svg

<svg width="14" height="14" viewBox="0 0 14 14" fill="none" xmlns="http://www.w3.org/2000/svg">
<g clip-path="url(#clip0_187_926)">
<path fill-rule="evenodd" clip-rule="evenodd" d="M4.35818 11.3722L6.08161 7.94921L6.23845 6.06341L5.67841 6.30978L5.54401 7.27301C5.49921 7.63141 5.18561 7.87785 4.84958 7.87785C4.46881 7.87785 4.15521 7.54181 4.15521 7.18341C4.15521 7.13861 4.15521 7.09381 4.15521 7.07145L4.37921 5.72745C4.40158 5.48101 4.55841 5.27945 4.75998 5.18985L6.12641 4.56265C6.35041 4.47305 6.73118 4.24898 6.99998 4.24898C7.24641 4.24898 7.53758 4.47305 7.69441 4.56265L9.53121 5.72745C9.71041 5.86178 9.84481 6.08585 9.84481 6.33221C9.84481 6.73541 9.50878 7.02658 9.15038 7.02658C8.99361 7.02658 8.85921 6.98185 8.74725 6.91461L7.62718 6.17545L7.50231 7.96771L8.75145 9.08738C8.88578 9.17698 8.9887 9.30858 9.04261 9.46821L9.77758 11.529C9.77758 11.5962 9.80001 11.6634 9.80001 11.7306C9.80001 12.089 9.48641 12.425 9.10565 12.425C8.76961 12.425 8.50081 12.2234 8.41121 11.9098L7.74341 10.0954L6.9217 9.26433L5.54541 12.0666C5.41101 12.2906 5.20945 12.425 4.94065 12.425C4.53738 12.425 4.24621 12.089 4.24621 11.7306C4.24621 11.5962 4.26858 11.4842 4.35818 11.3722ZM6.08161 2.62498C6.08161 2.0442 6.5731 1.57501 7.13165 1.57501C7.7348 1.57501 8.18161 2.0442 8.18161 2.62498C8.18161 3.18352 7.7348 3.67501 7.13165 3.67501C6.5731 3.67501 6.08161 3.18352 6.08161 2.62498Z" fill="#1A1C1F"/>
</g>
<defs>
<clipPath id="clip0_187_926">
<rect width="14" height="14" fill="white"/>
</clipPath>
</defs>
</svg>

<svg xmlns="http://www.w3.org/2000/svg" width="14" height="14" fill="none"><g clip-path="url(#a)"><path fill="#1A1C1F" fill-rule="evenodd" d="M4.358 11.372 6.082 7.95l.156-1.886-.56.247-.134.963a.7.7 0 0 1-.694.605.713.713 0 0 1-.695-.695v-.112l.224-1.344a.66.66 0 0 1 .381-.537l1.366-.627c.224-.09.605-.314.874-.314.246 0 .538.224.694.314l1.837 1.164c.18.135.314.359.314.605a.7.7 0 0 1-.695.695.77.77 0 0 1-.403-.112l-1.12-.74-.125 1.793 1.25 1.12a.74.74 0 0 1 .29.38l.736 2.061c0 .067.022.134.022.202a.713.713 0 0 1-.694.694.7.7 0 0 1-.695-.515l-.668-1.815-.821-.83-1.377 2.802c-.134.224-.336.358-.604.358a.7.7 0 0 1-.695-.694c0-.135.023-.247.112-.359m1.724-8.747c0-.58.491-1.05 1.05-1.05.603 0 1.05.47 1.05 1.05 0 .559-.447 1.05-1.05 1.05-.559 0-1.05-.491-1.05-1.05" clip-rule="evenodd"/></g><defs><clipPath id="a"><path fill="#fff" d="M0 0h14v14H0z"/></clipPath></defs></svg>
